!!!COM: Palestrina, Giovanni Perluigi da
!!!OPR: Dilexi quoniam
!!!OTL: Kyrie
**kern	**kern	**kern	**kern	**kern
*Ibass	*Itenor	*Itenor	*Icalto	*Icant
!Bassus	!Tenor 2	!Tenor 1	!Altus	!Cantus
*clefF4	*clefGv2	*clefGv2	*clefG2	*clefG2
*k[]	*k[]	*k[]	*k[]	*k[]
*C:ion	*C:ion	*C:ion	*C:ion	*C:ion
*M4/2	*M4/2	*M4/2	*M4/2	*M4/2
=1	=1	=1	=1	=1
0r	0r	1G	0r	0r
.	.	2G	.	.
.	.	2G	.	.
=2	=2	=2	=2	=2
0r	0r	1.c	0r	0r
.	.	2B	.	.
=3	=3	=3	=3	=3
0r	0r	2B	0r	1g
.	.	2.c	.	.
.	.	.	.	2g
.	.	4B	.	.
.	.	4A	.	2g
.	.	4G	.	.
=4	=4	=4	=4	=4
0r	0r	1A	0r	1.cc
.	.	2G	.	.
.	.	[2g	.	2b
=5	=5	=5	=5	=5
0r	0r	4g]	0r	2b
.	.	4f	.	.
.	.	4e	.	2.cc
.	.	4d	.	.
.	.	2e	.	.
.	.	.	.	4b
.	.	[2f	.	4a
.	.	.	.	4g
=6	=6	=6	=6	=6
1r	1d	4f]	0r	2a
.	.	4e	.	.
.	.	4d	.	2a
.	.	4c	.	.
1G	2d	4B	.	1g
.	.	4A	.	.
.	2d	[2B	.	.
=7	=7	=7	=7	=7
2G	1.g	2B]	0r	1r
2G	.	4A	.	.
.	.	4G	.	.
[1c	.	[1A	.	2r
.	2f	.	.	2cc
=8	=8	=8	=8	=8
2c]	2f	2A]	1r	2a
2B	2.g	2G	.	1dd
2B	.	2G	1g	.
.	4f	.	.	.
[2c	4e	4g	.	2ee
.	4d	4f	.	.
=9	=9	=9	=9	=9
4c]	4e	4e	2g	1cc
4B	4f	4d	.	.
4A	1g	1e	2g	.
4G	.	.	.	.
1A	.	.	[1cc	1r
.	2f#	2c	.	.
=10	=10	=10	=10	=10
1G	1g	2d	2cc]	2r
.	.	2.g	2b	1dd
1r	2G	.	2b	.
.	.	4f	.	.
.	4c	4e	[2cc	[2ee
.	4d	4d	.	.
=11	=11	=11	=11	=11
0r	4e	2c	4cc]	2ee]
.	4f	.	4b	.
.	1g	2e	4a	2cc
.	.	.	4g	.
.	.	2d	1a	2.dd
.	2f#	[2d	.	.
.	.	.	.	4cc
=12	=12	=12	=12	=12
1G	2.g	2d]	1g	1b
.	.	2e	.	.
.	4f	.	.	.
2A	2e	2c	1r	1a
2F	4d	[2d	.	.
.	4c	.	.	.
=13	=13	=13	=13	=13
1G	4B	4d]	2r	1g
.	4c	4c	.	.
.	4d	2B	2g	.
.	4B	.	.	.
2.F	2c	1A	2a	1r
.	[2d	.	2f	.
8E	.	.	.	.
8D	.	.	.	.
=14	=14	=14	=14	=14
1E	4d]	2r	1g	1r
.	4c	.	.	.
.	1c	2G	.	.
1D	.	2A	1f	1dd
.	2B	2F	.	.
=15	=15	=15	=15	=15
1C	1c	1G	2.e	2ee
.	.	.	.	1cc
.	.	.	8d	.
.	.	.	8c	.
1r	1G	2r	1d	.
.	.	[2g	.	2b
=16	=16	=16	=16	=16
1c	1r	2g]	0r	4ee
.	.	.	.	4dd
.	.	2a	.	4cc
.	.	.	.	4b
2d	2r	2f	.	2a
2B	2d	[2g	.	2b
=17	=17	=17	=17	=17
2c	2e	4g]	1r	2g
.	.	4f	.	.
2c	2c	2e	.	1cc
1G	2.g	1d	2r	.
.	.	.	[2g	2b
.	4f	.	.	.
=18	=18	=18	=18	=18
1r	2e	1c	2g]	2.cc
.	2A	.	2a	.
.	.	.	.	4b
2r	1d	2r	2f	2a
[2G	.	2d	[2g	[2b
=19	=19	=19	=19	=19
2G]	0r	2e	4g]	2b]
.	.	.	4f	.
2A	.	1c	2e	4a
.	.	.	.	4g
2F	.	.	2.d	2a
[2G	.	4B	.	2b
.	.	4A	4c	.
=20	=20	=20	=20	=20
4G]	2r	2B	2d	1g
4F	.	.	.	.
2E	2G	1c	2e	.
1D	2A	.	1f	1dd
.	2F	2B	.	.
=21	=21	=21	=21	=21
0C	2G	0c	1e	1ee
.	1g	.	.	.
.	.	.	2r	1cc
.	2a	.	[2cc	.
=22	=22	=22	=22	=22
0r	2f	1r	2cc]	2.dd
.	2.g	.	4b	.
.	.	.	4a	4cc
.	.	2r	2b	2dd
.	4f	.	.	.
.	2e	2g	[2cc	2ee
=23	=23	=23	=23	=23
0r	1d	2a	2cc]	1ff
.	.	2f	2b	.
.	2c	2.g	2cc	2ee
.	2G	.	2b	[2dd
.	.	4f	.	.
=24	=24	=24	=24	=24
1r	2A	1e	2a	4dd]
.	.	.	.	4cc
.	2c	.	2g	1cc
2r	1G	1d	2.g	.
2G	.	.	.	2b
.	.	.	4f	.
=25	=25	=25	=25	=25
2A	1r	1c	2e	2cc
2F	.	.	2f	2a
2.G	2r	2r	1d	1b
.	[2g	[2d	.	.
4A	.	.	.	.
=26	=26	=26	=26	=26
2B	2g]	2d]	0r	0r
2c	2a	2e	.	.
2A	2f#	2c	.	.
2B	[2g	[2d	.	.
=27	=27	=27	=27	=27
1c	4g]	4d]	1g	1r
.	4f	4c	.	.
.	2e	1c	.	.
2F	1d	.	2a	2r
2G	.	2B	[2g	2dd
=28	=28	=28	=28	=28
1C	2c	1c	2g]	1ee
.	2g	.	2e	.
1r	1a	2r	4f	2cc
.	.	.	4e	.
.	.	[2d	4f	[2dd
.	.	.	4g	.
=29	=29	=29	=29	=29
0r	2f	2d]	2a	4dd]
.	.	.	.	4cc
.	2g	2e	1g	2b
.	2r	2c	.	1a
.	[2d	2d	2f#	.
=30	=30	=30	=30	=30
1G	2d]	1B	2g	1g
.	2e	.	2b	.
2A	2c	1A	2cc	2r
2F	[2d	.	[2a	2a
=31	=31	=31	=31	=31
1G	4d]	0d	2a]	2b
.	4c	.	.	.
.	2B	.	1g	2g
1D	1A	.	.	1a
.	.	.	2f#	.
=32	=32	=32	=32	=32
0G	0G	0d	0g	0b
=33	=33	=33	=33	=33
1G	1d	0r	0r	0r
2G	2d	.	.	.
2G	2d	.	.	.
=34	=34	=34	=34	=34
1.c	1.e	0r	0r	1r
.	.	.	.	1g
2B	2d	.	.	.
=35	=35	=35	=35	=35
2B	2d	0r	0r	2g
2G	1g	.	.	2g
1A	.	.	.	[1cc
.	2f#	.	.	.
=36	=36	=36	=36	=36
1G	0g	2r	1d	2cc]
.	.	2G	.	2b
1r	.	2G	2d	2b
.	.	2G	2d	2g
=37	=37	=37	=37	=37
0r	1r	1.c	1.e	2a
.	.	.	.	2.g
.	1G	.	.	.
.	.	.	.	4a
.	.	2B	2d	4b
.	.	.	.	4cc
=38	=38	=38	=38	=38
0r	2G	2B	2d	2dd
.	2G	2G	1g	1ee
.	1c	1A	.	.
.	.	.	2f#	4dd
.	.	.	.	4cc
=39	=39	=39	=39	=39
1r	1d	1G	1g	4b
.	.	.	.	4a
.	.	.	.	2b
1C	[1e	2r	2g	[1cc
.	.	2G	2g	.
=40	=40	=40	=40	=40
2C	1e]	2G	0c	1cc]
2C	.	2G	.	.
[1F	1r	[1A	.	1r
=41	=41	=41	=41	=41
2F]	1c	2A]	0r	0r
2E	.	2G	.	.
2E	2c	2G	.	.
2C	2c	[2c	.	.
=42	=42	=42	=42	=42
1D	1.f	2c]	1r	1r
.	.	2B	.	.
[1C	.	1c	2r	1g
.	2e	.	2c	.
=43	=43	=43	=43	=43
1C]	1e	0r	2c	2g
.	.	.	2c	2g
1r	2.d	.	[1f	[1a
.	4c	.	.	.
=44	=44	=44	=44	=44
0r	4A	0r	2f]	2a]
.	4B	.	.	.
.	2.c	.	2e	2g
.	.	.	2e	2g
.	4B	.	.	.
.	2A	.	2c	[2cc
=45	=45	=45	=45	=45
1r	2G	2r	1d	2cc]
.	2g	2G	.	2b
1C	2.e	2G	2c	1cc
.	.	2G	2g	.
.	4d	.	.	.
=46	=46	=46	=46	=46
2C	4e	1.c	2g	2r
.	4f	.	.	.
2C	4g	.	2g	1cc
.	4e	.	.	.
[1F	2.f	.	[1a	.
.	.	2c	.	2cc
.	4e	.	.	.
=47	=47	=47	=47	=47
2F]	4c	1c	2a]	2cc
.	4d	.	.	.
2E	4e	.	2g	2.gg
.	4f	.	.	.
2E	[1g	1c	4e	.
.	.	.	4f	4ff
2C	.	.	4g	2ee
.	.	.	4a	.
=48	=48	=48	=48	=48
0G	0g]	2d	2b	2dd
.	.	2e	1cc	2cc
.	.	1d	.	1dd
.	.	.	2b	.
=49	=49	=49	=49	=49
0C	2r	0c	2cc	2ee
.	2e	.	2g	2cc
.	2e	.	2g	2cc
.	2c	.	2e	2cc
=50	=50	=50	=50	=50
2r	2d	2r	2f	2a
2c	2e	2g	2g	2g
2c	1c	2g	1e	[1cc
2c	.	2e	.	.
=51	=51	=51	=51	=51
2A	1r	2f	2r	2cc]
2G	.	2g	2g	4b
.	.	.	.	4a
2.c	2r	2.e	2g	1g
.	[2c	.	2e	.
4B	.	4d	.	.
=52	=52	=52	=52	=52
2A	2c]	2c	2f	0r
1G	4B	2d	2g	.
.	4A	.	.	.
.	1B	1G	2d	.
2E	.	.	2g	.
=53	=53	=53	=53	=53
2A	2c	0r	2f	0r
2G	2B	.	1e	.
1F	1A	.	.	.
.	.	.	2d	.
=54	=54	=54	=54	=54
2.E	2B	2r	2.e	0r
.	2e	2g	.	.
4D	.	.	4f	.
1C	2e	2g	1g	.
.	2c	2e	.	.
=55	=55	=55	=55	=55
0r	2d	2f	2r	2r
.	2e	2g	2e	2cc
.	1c	1e	2e	2cc
.	.	.	2c	2cc
=56	=56	=56	=56	=56
0r	0r	2f	2d	2a
.	.	2g	2e	2g
.	.	2e	2c	2.cc
.	.	2f	[2f	.
.	.	.	.	4b
=57	=57	=57	=57	=57
2r	1r	0c	2f]	2a
2C	.	.	4e	1g
.	.	.	4d	.
2C	2r	.	4e	.
.	.	.	4f	.
2C	2c	.	2g	2e
=58	=58	=58	=58	=58
2F	2c	0r	2f	2a
2C	2c	.	1e	2g
1D	2A	.	.	1f
.	2B	.	2d	.
=59	=59	=59	=59	=59
0C	1c	2r	2e	2.e
.	.	2c	2g	.
.	.	.	.	4f
.	2.e	2c	2g	1g
.	.	2c	2e	.
.	4d	.	.	.
=60	=60	=60	=60	=60
2r	2c	2A	2f#	2r
2E	4B	2G	2g	2gg
.	4A	.	.	.
2E	1G	2.c	2e	2gg
2C	.	.	2e	2ee
.	.	4B	.	.
=61	=61	=61	=61	=61
2D	2r	2A	2d	2ff#
2E	2G	2G	2B	2gg
[1C	2G	4g	4c	4ee
.	.	4f	4d	4dd
.	2G	4e	4e	4cc
.	.	4d	4f	4b
=62	=62	=62	=62	=62
1C]	1c	1e	1g	1cc
[1G	[1B	[1d	[1g	[1dd
=63	=63	=63	=63	=63
1G]	1B]	1d]	1g]	1dd]
==	==	==	==	==
*-	*-	*-	*-	*-
!!!CDT: 1525/^1526/-1594/2/2
!!!OCY: Italia
!!!AGN: Mass (Parody)
!!!AST: renaissance, vocal
!!!ASW: Motet (Maffoni)
!!!PWK: Masses, Book 6
!!!RNB: Cadence finals: G,A
!!!YOR: Le Opere Complete, v. 21, p. 105
!!!YOO: Rome, Italy: Fratelli Scalera
!!!END: 1992//
!!!EED: John Miller
!!!YEC: Copyright 2000, John Miller
!!!YEN: United States of America
!!!YEM: Rights to all derivative electronic formats reserved.
!!!YEM: Refer to licensing agreement for further details.
!!!YEM: This file must be accompanied by the licensing agreement.
!!!YEM: A copy of the licensing agreement may be found at http://www.music-cog.ohio-state.edu/HumdrumDatabases/Palestrina/license.txt
!!!EMD: converted to Humdrum by Bret Aarden
